X: 1038
T: Captain Hollis's Farewell.
%R: air, minuet, jig
B: Henry Playford "Apollo's Banquet", London 1687 (5th Edition)
F: https://archive.org/details/apollosbanquetco01rugg
Z: 2017 John Chambers <jc:trillian.mit.edu>
M: 6/8
L: 1/8
K: G
% - - - - - - - - - -
|:\
g4d2 B3AG2 | F2A2A2 A3Bc2 |\
(df)(dB)(FG) E3FG2 | A2A3G G3def ::\
g4d2 e3dc2 | B2c2d2 c3BA2 |
(ab)(af)(ed) B3cd2 | e2e3d d4=f2 |\
e2c3B A3Bc2 | d2(cB)(AG) F4E2 |\
e2(dc)(Bc) d2F2(GA) | A4G2 HG6 |]
% - - - - - - - - - -

%%sep 1 1 500
%%sep 1 1 500

